X:127
M:6/8
L:1/8
Q:3/8=100
K:G
|:e|g2~a b2c'|bag fed|g>fg a>^ga|b^ab B2 g/a/|!
bc'/b/a/g/ ab/a/g/f/|e/d/c/B/g f2e|dBA/G/ B2 A/F/|G>AF E2:|!
|:e|e<B z/e/ e<B e/f/|gba/g/ f2e|dBd/e/4f/4 g2f|e>^de E2 E/F/|
e/d/c/B/A/G/ A3/2B/4c/4 B/4c/4^d/4e/4|G>AF E2:|!
|:e/>f/|gEg aFa|bGb agf|e/B/g/B/a/B/ b/a/g/f/e/^d/|eEE E/^D/E/F/G/A/|!

